X:11099
T:Money Musk. BF14.03
M:4/4
L:1/8
Q:140
S:MS14,Browne "D",early 19thC,Troutbeck,W'morland
R:Strathspey
O:England
A:Lakes
N:NB, definitely looks like "b" in MS, but doesn't sound right at all so
N:I've changed it to the more normal "a"..CGP
Z:vmp.Chris Partington
K:A maj
f|eAcA eAdf|eAcA Bc/B/ df|eAcA (cd/)e/"NB"a2|fdBe cAA:|!
|:g|aeca eace|aeda caBg|aefa eaca|fdBe cAAg|!
aeca eace|aeda caBg|aefa ead"NB"a|caBe cAA:|]
